X: 1
T: Vendelspolskan
C: Leonard Larsson "Viksta Lasse"
R: hambo-polska
Z: John Chambers <jc@trillian.mit.edu>
M: 3/4
L: 1/8
K: G
|: "G"B2 G>B d>B | "Am"d>c A>c e>d \
|1,3 "G"d>B G>B d>c | "D7"A<F D4 \
:|2,4 "G"d>B G>B "D7"d>c | A<F "G"G4 :|
|: "G"g2 gc | "Am"e2 e<A c>B | "D7"d2 d<D F>A \
|1,3 "G"c>B G>B de/f/ :|2,4 "D7"c<B "G"G4 :|
|: "G"B,2 D2 D>D | "C"C2 E4 | "D7"D>F A<c B>A \
|1,3 "G"G2 (3BGB d2 :|2,4 "G"Gz G4 :|
